X:2
T:Morticia
C:Traditional
D:"Traffic" from Lia Luachra
D:Booklet notes
D:The tune always struck Declan as real "Adams 
D:Family" soundtrack material! He found it on a tape of
D:Scottish fiddle music some time ago.
Z:Transcribed by Lionel Gueganton
L:1/8
M:4/4
K:G
|: A2AA^GAAA           | BcBAEAA/A/A      | A^GABcBcd    |  e2e/e/ee2A2 |
  [a2e2A2E2]aee/g/gg=f | e=fed[e2e2]AB    | cBA/B/cBA^GB |1 A2E2AA^GA  :|2 A2E2A2AB
|: cedcB/c/dcB         | A2E2E3B          | cBcde=fed    | [e2e2]e/e/ee2AB 
 |1cedcB2E/F/^G        | ABcBA2e=f        | e2d2e2a2     | ^g/g/gggg2AB
:|2c/B/BA^GEGAB        | c/B/Bcd[e2e2]e=f | edcA^G2A2    | c/c/ccA^G/G/GGA

